#TITLE Portamento Test
#COMPOSER Craig Campbell
#PROGRAMER Craig Campbell
@v100 = { 3 2 0 }
@v101 = { 14 6 6 6 5 5 4 4 0 }
@EP100 = { -20 | 0 2 0 }
ABCDE t130
@v0 = { 10 }
@v1 = { 5 }
C o3 f+1 d1 a1 c+ c+ g+ f 
D [@v100 EP100 q4 [c16]4 EPOF @v101 EP100 q4 c16 EPOF @v100 EP100 q4 [c16]3]16
