#TITLE Portamento Test
#COMPOSER Craig Campbell
AB t140
@v0 = { 10 }
@v1 = { 5 }
@v3 = { 5 6 7 }
A @@2 @v0 q6 o2 [[a16 > c16 e16 a16]4 < [f16 a16 > c16 f16]4 < [c16 e16 g16 > c16]4 < [e16 g+16 b16 > d16]4]2
