#TITLE Portamento Test
#COMPOSER Craig Campbell
#PROGRAMER Craig Campbell
@100 = { 2 }
@v100 = { 10 }
@v101 = { 11 9 7 5 3 }
@v102 = { 15 7 7 7 6 6 5 5 0 }
@EP100 = { -20 | 0 2 0 }
ABCDE t135
A l16 @@100 @v100 q4 o2 [[a > c e a]4 < [f a > c f]4 < [c e g > c]4 < [e g+ b > d]4]2
D l16 [@v101 q1 [c]4 @v102 EP100 q4 c EPOF @v101 q1 [c]3]16
