#TITLE Demo 4
#COMPOSER Craig Campbell
#PROGRAMER Craig Campbell
@0 = { 1 }
@v0 = { 4 4 4 4 4 4 4 4 4 4 3 3 3 3 3 3 3 3 3 3 2 2 2 2 2 2 2 2 2 2 1 1 1 1 1 1 1 1 1 0 }
@v1 = { 6 6 6 6 6 6 6 6 6 5 5 5 5 5 5 5 5 4 4 4 4 4 4 4 4 3 3 3 3 3 3 3 3 2 2 2 2 2 2 2 2 1 1 1 1 1 1 1 1 0 }
@v2 = { 8 8 8 8 8 8 8 8 7 7 7 7 7 7 7 6 6 6 6 6 6 6 6 5 5 5 5 5 5 5 4 4 4 4 4 4 4 3 3 3 3 3 3 3 3 2 2 2 2 2 2 2 1 1 1 1 1 1 1 0 }
@v3 = { 13 13 13 13 13 13 12 12 12 12 12 12 11 11 11 11 11 11 10 10 10 10 10 9 9 9 9 9 9 8 8 8 8 8 8 7 7 7 7 7 6 6 6 6 6 6 5 5 5 5 5 5 4 4 4 4 4 3 3 3 3 3 3 2 2 2 2 2 2 1 1 1 1 1 0 }
ABCDE t115
A o4 @@0 @v0 e- @v1 g @v2 b- @v3 > e-2. @v2 c2. < b-2. a-2. @v1 b-2. @v2 d2.
B o3 @@0 @v0 e- @v1 e- @v2 g @v3 e-2. @v2 a-2. g2. f2. @v1 g2. @v2 b-2.
