#TITLE Demo 2
#COMPOSER Craig Campbell
#PROGRAMER Craig Campbell
@20 = { 2 }
@v20 = { 0 2 3 4 5 6 7 8 9 10 }
@v21 = { 11 9 7 5 3 }
@EP20 = { 1 1 1 1 1 1 1 1 1 1 1 1 1 1 1 1 1 1 2 2 2 2 2 2 2 2 2 2 2 2 2 2 2 2 2 2 0 }
@EP21 = { 2 2 2 2 2 2 2 2 2 2 2 2 2 2 2 2 2 2 2 2 2 2 2 2 2 2 2 2 2 2 2 2 2 2 2 2 0 }
@EP22 = { -3 -3 -3 -3 -3 -3 -3 -3 -3 -3 -3 -3 -3 -3 -3 -3 -3 -3 -3 -3 -3 -3 -3 -3 -3 -3 -3 -3 -3 -3 -3 -3 -3 -3 -3 -3 0 }
@EP23 = { 9 9 9 9 9 9 9 9 9 9 9 9 9 9 9 9 9 9 9 9 10 10 10 10 10 10 10 10 10 10 10 10 10 10 10 10 0 }
@EP24 = { 5 5 6 6 6 6 6 6 6 6 6 6 6 6 6 6 6 6 6 6 6 6 6 6 6 6 6 6 6 6 6 6 6 6 6 6 0 }
@MP20 = { 8 4 4 }
ABCDE t100
AB @@20 @v20 MP20 
A o4 [c2. e2 EP20 e2. EPOF EP21 g1 EPOF]2 >
B o3 [e2. g2 EP22 g2. EPOF EP23 e1 EPOF]2 >
C o4 [c2 EP24 c1 EPOF > q4 < c e g c e g]2
D l4 @v21 q1 [c]24
