#TITLE Demo 2
#COMPOSER Craig Campbell
#PROGRAMER Craig Campbell
@0 = { 2 }
@v0 = { 0 2 3 4 5 6 7 8 9 10 }
@v1 = { 11 9 7 5 3 }
@EP0 = { 1 1 1 1 1 1 1 1 1 1 1 1 1 1 1 1 1 1 2 2 2 2 2 2 2 2 2 2 2 2 2 2 2 2 2 2 0 }
@EP1 = { 2 2 2 2 2 2 2 2 2 2 2 2 2 2 2 2 2 2 2 2 2 2 2 2 2 2 2 2 2 2 2 2 2 2 2 2 0 }
@EP2 = { -3 -3 -3 -3 -3 -3 -3 -3 -3 -3 -3 -3 -3 -3 -3 -3 -3 -3 -3 -3 -3 -3 -3 -3 -3 -3 -3 -3 -3 -3 -3 -3 -3 -3 -3 -3 0 }
@EP3 = { 9 9 9 9 9 9 9 9 9 9 9 9 9 9 9 9 9 9 9 9 10 10 10 10 10 10 10 10 10 10 10 10 10 10 10 10 0 }
@EP4 = { 5 5 6 6 6 6 6 6 6 6 6 6 6 6 6 6 6 6 6 6 6 6 6 6 6 6 6 6 6 6 6 6 6 6 6 6 0 }
@MP0 = { 8 4 4 }
ABCDE t100
AB @@0 @v0 MP0 
A o4 [c2. e2 EP0 e2. EPOF EP1 g1 EPOF]2 >
B o3 [e2. g2 EP2 g2. EPOF EP3 e1 EPOF]2 >
C o4 [c2 EP4 c1 EPOF > q4 < c e g c e g]2
D l4 @v1 q1 [c]24
