#TITLE Demo 4
#COMPOSER Craig Campbell
#PROGRAMER Craig Campbell
@20 = { 1 }
@v20 = { 4 4 4 4 4 4 4 4 4 4 3 3 3 3 3 3 3 3 3 3 2 2 2 2 2 2 2 2 2 2 1 1 1 1 1 1 1 1 1 0 }
@v21 = { 6 6 6 6 6 6 6 6 6 5 5 5 5 5 5 5 5 4 4 4 4 4 4 4 4 3 3 3 3 3 3 3 3 2 2 2 2 2 2 2 2 1 1 1 1 1 1 1 1 0 }
@v22 = { 8 8 8 8 8 8 8 8 7 7 7 7 7 7 7 6 6 6 6 6 6 6 6 5 5 5 5 5 5 5 4 4 4 4 4 4 4 3 3 3 3 3 3 3 3 2 2 2 2 2 2 2 1 1 1 1 1 1 1 0 }
@v23 = { 13 13 13 13 13 13 12 12 12 12 12 12 11 11 11 11 11 11 10 10 10 10 10 9 9 9 9 9 9 8 8 8 8 8 8 7 7 7 7 7 6 6 6 6 6 6 5 5 5 5 5 5 4 4 4 4 4 3 3 3 3 3 3 2 2 2 2 2 2 1 1 1 1 1 0 }
ABCDE t115
A o4 @@20 @v20 e- @v21 g @v22 b- @v23 > e-2. @v22 c2. < b-2. a-2. @v21 b-2. @v22 d2.
B o3 @@20 @v20 e- @v21 e- @v22 g @v23 e-2. @v22 a-2. g2. f2. @v21 g2. @v22 b-2.
