#TITLE FDS Demo
#COMPOSER Craig Campbell
#PROGRAMER Craig Campbell
#EX-DISKFM
@v0 = { 63 62 61 59 58 56 55 53 52 50 50 49 47 45 44 42 40 38 37 35 33 32 30 28 26 25 23 21 19 18 16 14 13 11 9 7 6 4 2 0 }
@FM0 = { 00 04 21 38 44 50 54 57 51 50 48 54 54 58 60 63 63 63 62 51 56 56 52 54 55 58 58 54 48 42 25 08 04 08 25 42 48 54 58 58 55 54 52 56 56 51 62 63 63 63 60 58 54 54 48 50 51 57 54 50 44 38 21 04 }
F t80
F o2 @v0 @@0 l16 |: [c e g > c e g]4 << [a > c e a > c e]4 << [f a > c f a > c]4 << [g b > d g b > d]4 :|2
