#TITLE N106 Demo
#COMPOSER Craig Campbell
#PROGRAMER Craig Campbell
#EX-NAMCO106 4
#PITCH-CORRECTION
@v0 = { 10 }
@v1 = { 12 }
@v2 = { 6 }
@N0 = { 00, 15 15 15 15 0 0 0 0 }
@N1 = { 01, 0 1 2 3 4 5 6 7 8 9 10 11 12 13 14 15 }
PQR t130
P o2 @v0 @@0 a > c e a e c e g < a > c e a g d < b g f a > c f e < b g+ e a1
Q o1 l8 @v1 @@1 [a > a]4 [c > c]4 << [a > a]4 < [g > g]4 < [f > f]4 < [e > e]4 < a1
R o4 @v0 @@0 @v2 r1 c c c e r1 < b g g b r1^1 c1
