#TITLE Portamento Test
#COMPOSER Craig Campbell
#PROGRAMER Craig Campbell
@100 = { 2 }
@v100 = { 10 }
@v101 = { 3 2 0 }
@v102 = { 14 6 6 6 5 5 4 4 0 }
@EP100 = { -20 | 0 2 0 }
ABCDE t135
A @@100 @v100 q3 o2 [[g+16 b16 > d+16 g+16]4 < [e16 g+16 b16 > e16]4 < [< b16 > d+16 f+16 b16]4 [d+16 g16 a+16 > c+16]4]2
D [@v101 EP100 q4 [c16]4 EPOF @v102 EP100 q4 c16 EPOF @v101 EP100 q4 [c16]3]16
